X: 1060
T: Gregg's Frolick
P: Longways for as many as will
R: reel, march
B: "Caledonian Country Dances" printed by John Walsh for John Johnson, London
S: http://imslp.org/wiki/Caledonian_Country_Dances_with_a_Thorough_Bass_(Various)
Z: 2013 John Chambers <jc:trillian.mit.edu>
N: Repeats added to match the instructions in the dance.
M: C|
L: 1/8
K: C
% - - - - - - - - - - - - - - - - - - - - - - - - -
% Voice 1 has 4/8-bar staff lines:
V: 1
|:\
g2c2 a2c2 | g2c2 a2c2 | g2c2 a2c2 | g2fe d4 |\
d2G2 e2G2 | d2G2 e2G2 | c2BA A3G | G8 :|
|:\
G2d2 B2d2 | A2d2 G4 | c2e2 e2dc | B2A2 ^G4 |\
A2e2 c2e2 | B2e2 A2Bc | d2c2 B3A | A8 |
A2d2 d2cB | c2d2 B4 | c2g2 g2fe | f2g2 e4 |\
g2c2 a2c2 | g2c2 a2c2 | f2ed d3c | c8 :|
% - - - - - - - - - - - - - - - - - - - - - - - - -
% Voice 2 preserves the original staff breaks:
V: 2 clef=bass middle=d
|:\
c2c2 f4 | c2c2 F4 | c2c2 c2c2 | c2F2 G2G2 |\
G4 g2g2 | g4 g2g2 | ^f2gc d2D2 | G8 :|\
|:\
G2G2 G2G2 | d2^f2 g2G2 | G4 A2Bc | d2d2 efed |\
c2B2 ABcd |
e2d2 cc'ba | ^g2ad e2E2 | A2AB c2^c2 |\
d4 z2d2 | d2d2 g4 | z4 z2G2 | G2G2 c4 |\
c2c2 c2c2 | c2c2 c2c2 | B2cF G2G2 | c8 :|
% - - - - - - - - - - - - - - - - - - - - - - - - -
%%begintext align
The 1st and 2d Cu. set across and turn all 4 round single, then set again and turn to
your own Places.  This to the 1st strain play'd twice. Then cross below the 2d Cu.
and up again to your own Places. The 1st Man change Places with the 2d Wo. and the
1st Wo. with the 2d Man, then hands half round and cast off.  This to the 2d strain
play'd twice.
%%endtext

%%sep 1 1 500
%%sep 1 1 500
